Newaita-dark/actions/22/kdenlive-spacer-tool.svg

<svg height="22" viewBox="0 0 22 22" width="22" xmlns="http://www.w3.org/2000/svg"><g fill="#e0e0e0"><path d="m14.558594 5.609375c0 .367187-.222656.699219-.5625.839844-.34375.136719-.734375.054687-.992188-.210938l-2.085937-2.085937-2.089844 2.085937c-.226563.234375-.5625.328125-.878906.246094-.316407-.082031-.5625-.332031-.644531-.644531-.082032-.316406.007812-.652344.242187-.878906l2.730469-2.730469c.351562-.351563.925781-.351563 1.28125 0l2.726562 2.730469c.175782.167968.273438.402343.273438.648437zm0 0"/><path d="m16.3125 7.445312c-.371094 0-.703125.222657-.839844.5625-.140625.34375-.054687.734376.207032.992188l2.089843 2.085938-2.089843 2.089843c-.234376.226563-.328126.5625-.242188.878907.082031.316406.328125.5625.644531.644531.316407.082031.652344-.007813.878907-.242188l2.726562-2.730469c.355469-.351562.355469-.925781 0-1.28125l-2.726562-2.726562c-.171876-.175781-.40625-.273438-.648438-.273438zm0 0"/><path d="m5.519531 7.445312c.367188 0 .699219.222657.835938.5625.140625.34375.058593.734376-.207031.992188l-2.089844 2.085938 2.089844 2.089843c.234374.226563.328124.5625.242187.878907-.082031.316406-.328125.5625-.644531.644531-.3125.082031-.648438-.007813-.878906-.242188l-2.726563-2.730469c-.355469-.351562-.355469-.925781 0-1.28125l2.726563-2.726562c.171874-.175781.40625-.273438.652343-.273438zm0 0"/><path d="m10.914062 9.722656c.753907 0 1.367188.609375 1.367188 1.363282 0 .753906-.613281 1.367187-1.367188 1.367187-.753906 0-1.363281-.613281-1.363281-1.367187 0-.753907.609375-1.363282 1.363281-1.363282zm0 0"/></g></svg>

<svg xmlns="http://www.w3.org/2000/svg" xmlns:xlink="http://www.w3.org/1999/xlink" width="22px" height="22px" viewBox="0 0 22 22" version="1.1">
<g id="surface1">
     <defs>
  <style id="current-color-scheme" type="text/css">
   .ColorScheme-Text { color:#eeeeee; } .ColorScheme-Highlight { color:#424242; }
  </style>
 </defs>
<path style="fill:currentColor" class="ColorScheme-Text" d="M 14.558594 5.609375 C 14.558594 5.976562 14.335938 6.308594 13.996094 6.449219 C 13.652344 6.585938 13.261719 6.503906 13.003906 6.238281 L 10.917969 4.152344 L 8.828125 6.238281 C 8.601562 6.472656 8.265625 6.566406 7.949219 6.484375 C 7.632812 6.402344 7.386719 6.152344 7.304688 5.839844 C 7.222656 5.523438 7.3125 5.1875 7.546875 4.960938 L 10.277344 2.230469 C 10.628906 1.878906 11.203125 1.878906 11.558594 2.230469 L 14.285156 4.960938 C 14.460938 5.128906 14.558594 5.363281 14.558594 5.609375 Z M 14.558594 5.609375 "/>
     <defs>
  <style id="current-color-scheme" type="text/css">
   .ColorScheme-Text { color:#eeeeee; } .ColorScheme-Highlight { color:#424242; }
  </style>
 </defs>
<path style="fill:currentColor" class="ColorScheme-Text" d="M 16.3125 7.445312 C 15.941406 7.445312 15.609375 7.667969 15.472656 8.007812 C 15.332031 8.351562 15.417969 8.742188 15.679688 9 L 17.769531 11.085938 L 15.679688 13.175781 C 15.445312 13.402344 15.351562 13.738281 15.4375 14.054688 C 15.519531 14.371094 15.765625 14.617188 16.082031 14.699219 C 16.398438 14.78125 16.734375 14.691406 16.960938 14.457031 L 19.6875 11.726562 C 20.042969 11.375 20.042969 10.800781 19.6875 10.445312 L 16.960938 7.71875 C 16.789062 7.542969 16.554688 7.445312 16.3125 7.445312 Z M 16.3125 7.445312 "/>
     <defs>
  <style id="current-color-scheme" type="text/css">
   .ColorScheme-Text { color:#eeeeee; } .ColorScheme-Highlight { color:#424242; }
  </style>
 </defs>
<path style="fill:currentColor" class="ColorScheme-Text" d="M 5.519531 7.445312 C 5.886719 7.445312 6.21875 7.667969 6.355469 8.007812 C 6.496094 8.351562 6.414062 8.742188 6.148438 9 L 4.058594 11.085938 L 6.148438 13.175781 C 6.382812 13.402344 6.476562 13.738281 6.390625 14.054688 C 6.308594 14.371094 6.0625 14.617188 5.746094 14.699219 C 5.433594 14.78125 5.097656 14.691406 4.867188 14.457031 L 2.140625 11.726562 C 1.785156 11.375 1.785156 10.800781 2.140625 10.445312 L 4.867188 7.71875 C 5.039062 7.542969 5.273438 7.445312 5.519531 7.445312 Z M 5.519531 7.445312 "/>
     <defs>
  <style id="current-color-scheme" type="text/css">
   .ColorScheme-Text { color:#eeeeee; } .ColorScheme-Highlight { color:#424242; }
  </style>
 </defs>
<path style="fill:currentColor" class="ColorScheme-Text" d="M 10.914062 9.722656 C 11.667969 9.722656 12.28125 10.332031 12.28125 11.085938 C 12.28125 11.839844 11.667969 12.453125 10.914062 12.453125 C 10.160156 12.453125 9.550781 11.839844 9.550781 11.085938 C 9.550781 10.332031 10.160156 9.722656 10.914062 9.722656 Z M 10.914062 9.722656 "/>
</g>
</svg>
